X:169
T:Alan's Jig
O:england
R:Jig
C:Alan Dawson
S:Alan Dawson
A:Leeds
M:6/8
L:1/8
K:D
D|GFE FED|B,DD A,DD|GFE FED|FGA B2A|
GFE FED|B,DD A,DD|[F2d2][DA] [G2B2][DA]|EFE [D3A3]:|
|:[dD]dd cAA|GAA FAA|GAA FAA|GAA FAA|
[dD]dd cAA|GAA FAA|A,B,D FED|(3E/F/E/ DDD3:|
W:Copyright Alan Dawson


